src/pos-icons/speedometer-slow.svg

<svg height="24" viewBox="0 0 24 24" width="24" xmlns="http://www.w3.org/2000/svg"><path d="m12 16c1.66 0 3-1.34 3-3 0-1.12-.61-2.1-1.5-2.61l-9.71-5.62 5.53 9.58c.5.98 1.51 1.65 2.68 1.65m0-13c-1.81 0-3.5.5-4.97 1.32l2.1 1.21c.87-.34 1.87-.53 2.87-.53 4.42 0 8 3.58 8 8 0 2.21-.89 4.21-2.34 5.65h-.01c-.39.39-.39 1.02 0 1.41s1.03.39 1.42.01c1.81-1.81 2.93-4.31 2.93-7.07 0-5.5-4.5-10-10-10m-10 10c0 2.76 1.12 5.26 2.93 7.07.39.38 1.02.38 1.41-.01s.39-1.02 0-1.41c-1.45-1.45-2.34-3.44-2.34-5.65 0-1 .19-2 .54-2.9l-1.21-2.1c-.83 1.5-1.33 3.18-1.33 5z"/></svg>

<?xml version="1.0" encoding="UTF-8"?><!DOCTYPE svg PUBLIC "-//W3C//DTD SVG 1.1//EN" "http://www.w3.org/Graphics/SVG/1.1/DTD/svg11.dtd"><svg xmlns="http://www.w3.org/2000/svg" xmlns:xlink="http://www.w3.org/1999/xlink" version="1.1" id="mdi-speedometer-slow" width="24" height="24" viewBox="0 0 24 24"><path d="M12 16C13.66 16 15 14.66 15 13C15 11.88 14.39 10.9 13.5 10.39L3.79 4.77L9.32 14.35C9.82 15.33 10.83 16 12 16M12 3C10.19 3 8.5 3.5 7.03 4.32L9.13 5.53C10 5.19 11 5 12 5C16.42 5 20 8.58 20 13C20 15.21 19.11 17.21 17.66 18.65H17.65C17.26 19.04 17.26 19.67 17.65 20.06C18.04 20.45 18.68 20.45 19.07 20.07C20.88 18.26 22 15.76 22 13C22 7.5 17.5 3 12 3M2 13C2 15.76 3.12 18.26 4.93 20.07C5.32 20.45 5.95 20.45 6.34 20.06C6.73 19.67 6.73 19.04 6.34 18.65C4.89 17.2 4 15.21 4 13C4 12 4.19 11 4.54 10.1L3.33 8C2.5 9.5 2 11.18 2 13Z" /></svg>
